!!!OTL: Wiedersehen an der Bahre 'Ade, mein Schatz, jetzt reis' ich fort,
!!!ARE: Europa, Mitteleuropa, Schweiz, Aargau
!!!YOR: 3, S. 80
!!    1911 gedruckt in Basel
!!!SCT: Q0056D
!!!YEM: Copyright 1995, estate of Helmut Schaffrath.
**kern
*ICvox
*Ivox
*M3/4
*k[f#]
*G:
{8d
=1
8.d
16b
4b
8a
8g
=2
8g
8a
4d
8r}
{8d
=3
8.d
16cc
4cc
8b
8a
=4
4a
4g
8r}
{16g
16f#
=5
8.e
16f#
4g
8f#
8e
=6
8d
8g
4b
8r}
{8b
=7
8a
8b
4dd
8cc
8a
=8
4a
4b
8r}
{16g
16f#
=9
8.e
16f#
4g
8f#
8e
=10
8d
8g
4b
8r}
{8b
=11
8a
8b
4dd
8cc
8a
=12
4a
4g
8r}
==
!!!AGN: Ballade, Abschied, Enttaeuschung, Tod, Selbstmord
!!!ONB: ESAC (Essen Associative Code) Database: BALLADE
!!!AMT: simple triple
!!!AIN: vox
!!!EED: Helmut Schaffrath
!!!EEV: 1.0
*-
